X: 6
T: Sailing Through The Narrows
C: John McCusker
Z: didier
S: https://thesession.org/tunes/491#setting47178
R: waltz
M: 3/4
L: 1/8
K: Gmaj
D2|B2 BA Bd|c2 E2 FG|A2 E2 -EG|F2 ED GA|
B2 BA B/c/d|c2 E2 E/F/G|GF ED AB|G4 D2|
B2 BA Bd|c2 E2 FG|A2 E2 -EG|F2 ED dB|
B2 BA B/c/d|c2 E2 E/F/G|GF ED AB|G4 GF||
E2 ED EF|FG E2 FG|GF D2 A2-|AB AG FG|
E2 ED EF|FG E2 FG|GF ED AB|G4 GF|
E2 ED EF|FG E2 FG|GF ED AB|-AB AG FG-|
GF ED EF|FG E2 FG|GF ED AB|G4 D2||

%-------------------- TUNE SEPARATOR --------------------%

